src/assets/images/menu-icon-3.svg

<svg width="17" height="17" viewBox="0 0 17 17" fill="none" xmlns="http://www.w3.org/2000/svg">
<path fill-rule="evenodd" clip-rule="evenodd" d="M8.51853 1.4165C4.61632 1.4165 1.45361 4.57921 1.45361 8.48142C1.45361 11.6023 3.47732 14.2508 6.28515 15.1858C6.63861 15.2495 6.76611 15.0321 6.76611 14.8451C6.76611 14.6772 6.76045 14.2324 6.75832 13.6438C4.7927 14.0702 4.37761 12.696 4.37761 12.696C4.05745 11.88 3.59349 11.6625 3.59349 11.6625C2.95245 11.2241 3.64236 11.234 3.64236 11.234C4.35211 11.2836 4.72399 11.9622 4.72399 11.9622C5.3544 13.0417 6.37865 12.73 6.77957 12.5494C6.84403 12.0925 7.0282 11.7808 7.22936 11.6045C5.66111 11.4267 4.01211 10.8203 4.01211 8.11238C4.01211 7.34242 4.28765 6.71059 4.73745 6.21759C4.6659 6.03838 4.42153 5.31942 4.80757 4.34759C4.80757 4.34759 5.40045 4.15705 6.74982 5.0708C7.32612 4.91402 7.92058 4.834 8.51782 4.8328C9.11507 4.83376 9.70957 4.91379 10.2858 5.0708C11.6359 4.15634 12.2281 4.34759 12.2281 4.34759C12.6141 5.31942 12.3719 6.03838 12.2982 6.21759C12.7515 6.71059 13.0235 7.34171 13.0235 8.11238C13.0235 10.8274 11.3731 11.4238 9.7992 11.5988C10.0507 11.817 10.2773 12.2476 10.2773 12.9064C10.2773 13.8513 10.2688 14.6135 10.2688 14.8451C10.2688 15.0342 10.3949 15.2538 10.7554 15.1844C13.5619 14.248 15.5834 11.6016 15.5834 8.48142C15.5834 4.57921 12.4207 1.4165 8.51853 1.4165Z" fill="white"/>
</svg>

<svg xmlns="http://www.w3.org/2000/svg" width="17" height="17" fill="none"><path fill="#fff" fill-rule="evenodd" d="M8.519 1.417a7.064 7.064 0 0 0-2.234 13.769c.354.063.481-.154.481-.34 0-.169-.006-.614-.008-1.202-1.965.426-2.38-.948-2.38-.948-.32-.816-.785-1.034-.785-1.034-.64-.438.05-.428.05-.428.71.05 1.081.728 1.081.728.63 1.08 1.655.768 2.056.587.064-.457.248-.768.45-.944-1.569-.178-3.218-.785-3.218-3.493 0-.77.276-1.401.725-1.894-.071-.18-.315-.899.07-1.87 0 0 .593-.19 1.943.723a6.787 6.787 0 0 1 1.768-.238 6.766 6.766 0 0 1 1.768.238c1.35-.915 1.942-.723 1.942-.723.386.971.144 1.69.07 1.87a2.72 2.72 0 0 1 .726 1.894c0 2.715-1.65 3.312-3.225 3.487.252.218.478.649.478 1.307 0 .945-.008 1.707-.008 1.94 0 .188.126.408.486.338A7.067 7.067 0 0 0 8.52 1.416Z" clip-rule="evenodd"/></svg>
